X:1
T:Lord Rendal; or Billy Boy
M:6/8
L:1/4
K:G
 G G/2 G G/2| F E/2 D3/2| G3/2 G B/2| d3/2- d z/2| c/2c/2c/2 c B/2|\
 A c/2 B3/2| A B/2 A G/2| F3/2 D3/2| G3/2 G3/2| F E/2 D3/2| G G/2 G G/2|\
 B d/2 d3/2| c c/2 c B/2| A3/2 d d/2| D D/2 E F/2| G3/2- G||
